!!!COA:	Josquin des Prez
!!!CDT:	~1450-1521/08/27
!!!COM2: La Rue, Pierre de
!!!CDT2: ~1452///-1518/11/20/
!!!OPR:	Missa Cum iocunditate
!!!ONM:	1
!!!OTL:	Kyrie
!!!AGN:	Mass; Kyrie
!!!SCT:	NJE 3.4
!!!SCA:	New Josquin Edition 3.4
!!!voices: 4
!!!voices-OPR: 4(-5)
**kern	**kern	**kern	**kern
*staff4	*staff3	*staff2	*staff1
*Ivox	*Ivox	*Ivox	*Ivox
*I"Bassus	*I"Tenor	*I"Altus	*I"Superius
*I'B	*I'T	*I'A	*I'S
*>[A,B,C]	*>[A,B,C]	*>[A,B,C]	*>[A,B,C]
*>Kyrie1[A]	*>Kyrie1[A]	*>Kyrie1[A]	*>Kyrie1[A]
*>Christe[B]	*>Christe[B]	*>Christe[B]	*>Christe[B]
*>Kyrie2[C]	*>Kyrie2[C]	*>Kyrie2[C]	*>Kyrie2[C]
*clefF4	*clefGv2	*clefGv2	*clefG2
*>A	*>A	*>A	*>A
*k[]	*k[]	*k[]	*k[]
*M3/1	*M3/1	*M3/1	*M3/1
*met(O)	*met(O)	*met(O)	*met(O)
=1-	=1-	=1-	=1-
!!section: Kyrie I
!!!OMD: Kyrie I
0.r	0.r	0G	[0.g
.	.	1E	.
=2	=2	=2	=2
0.r	0.r	1G	1g]
.	.	1.A	0e
.	.	2G/	.
=3	=3	=3	=3
0.r	[0.d	1G	1g
.	.	2r	1.a
.	.	1F	.
.	.	2G/	2g/
=4	=4	=4	=4
[0.G	1d]	3d\V	1g
.	.	3B\	.
.	.	3d\Z	.
.	0B	2e\	2r
.	.	2d\	2g/
.	.	2r	2e/
.	.	2d\	[2g/
=5	=5	=5	=5
1G]	1d	4d\	4g/]
.	.	2B\	4a/
.	.	.	2b\
.	.	4G/	.
0E	1.e	1G	2cc\
.	.	.	2.b\
.	.	2r	.
.	.	.	4g/
.	2d\	[2G/	2g/
=6	=6	=6	=6
1G	1d	4G/]	2r
.	.	4A/	.
.	.	2B\	2g/
1.A	1r	1.c	2e/
.	.	.	2.f/
.	1r	.	.
.	.	.	4e/
2G\	.	2B\	[2g/
=7	=7	=7	=7
0G	2r	0B	4g/]
.	.	.	4a/
.	1d	.	4b\
.	.	.	4cc\
.	.	.	2dd\
.	2B\	.	2g/
2r	2d\	2r	2r
2G\	[2e\	[2G/	2g/
=8	=8	=8	=8
2E\	2e\]	4G/]	2.g/
.	.	4A/	.
1G	2d\	2B\	.
.	.	.	4a/
.	1d	2G/	4b\
.	.	.	4cc\
2G\	.	2B\	2.dd\
2.A\	1r	1c	.
.	.	.	2cc\
4G\	.	.	8b/L
.	.	.	8a/J
=9	=9	=9	=9
0G	1d	2r	2b\
.	.	2B\	2g/
.	2B\	4G/	2r
.	.	4A/	.
.	2d\	4B\	1g
.	.	4G/	.
1r	[1e	[1c	.
.	.	.	2e/
=10	=10	=10	=10
1r	1e]	1c]	2g/
.	.	.	2.a/
1.G	1d	1B	.
.	.	.	4g/
.	.	.	2g/
.	1r	2r	2r
2E\	.	4G/	[2g/
.	.	4A/	.
=11	=11	=11	=11
2G\	1r	4B\	2g/]
.	.	4G/	.
1A	.	1c	2e/
.	1r	.	2f/
2G\	.	2B\	2.g/
1G	[1d	1B	.
.	.	.	4a/
.	.	.	[2b\
=12	=12	=12	=12
2r	1d]	2G/	2b\]
2F\	.	2A/	2.a/
2G\	2B\	1B	.
.	.	.	4g/
2B\	2d\	.	2g/
1A	[1e	4c\	2a/
.	.	4d\	.
.	.	4e\	2cc\
.	.	4f\	.
=13	=13	=13	=13
1G	2e\]	2g\	2.b\
.	2d\	2G/	.
.	.	.	4g/
2r	1d	2r	2a/
1G	.	2d\	2.b\
.	2r	2e\	.
.	.	.	4g/
2D\	[2d\	2f\	2a/
=14	=14	=14	=14
2G\	2d\]	2d\	4b\
.	.	.	4g/
2F\	2d\	2f\	2a/
2G\	2B\	4e\	2b\
.	.	4d\	.
2B\	2d\	2g\	2g/
1A	[1e	4c\	1cc
.	.	4d\	.
.	.	4e\	.
.	.	4f\	.
=15	=15	=15	=15
0.Gl	2e\]	1g	0.bl
.	2d\	.	.
.	0dl	0gl	.
!!LO:LB:i:g=z
=16||	=16||	=16||	=16||
*>B	*>B	*>B	*>B
!!section: Christe
!!!OMD: Christe
*M2/1	*M2/1	*M2/1	*M2/1
*met(C|)	*met(C|)	*met(C|)	*met(C|)
0r	0r	0r	[0g
=17	=17	=17	=17
0r	0r	[0c	1g]
.	.	.	1e
=18	=18	=18	=18
0r	0r	1c]	1g
.	.	1A	[1a
=19	=19	=19	=19
0r	1r	1c	2a/]
.	.	.	2g/
.	[1G	[1d	1g
=20	=20	=20	=20
1r	1G]	2d\]	1r
.	.	2c\	.
[1C	1E	1c	1g
=21	=21	=21	=21
0C]	1G	2r	2g/
.	.	1c	1e
.	[1A	.	.
.	.	[2A/	4d/
.	.	.	4c/
=22	=22	=22	=22
1AA	2A/]	4A/]	1c
.	.	4B\	.
.	2G/	2.c\	.
1C	1G	.	2c/
.	.	4B\	.
.	.	4A/	4d/
.	.	4G/	4e/
=23	=23	=23	=23
[0D	2r	[0F	1f
.	1d	.	.
.	.	.	4f/
.	.	.	4e/
.	2B\	.	4d/
.	.	.	4c/
=24	=24	=24	=24
1D]	1d	1F]	1B
1C	[1e	1G	1c
=25	=25	=25	=25
0C	0e]	0G	1c
.	.	.	2r
.	.	.	[2cc\
=26	=26	=26	=26
2r	1d	2r	4cc\]
.	.	.	4b\
2G\	.	2G/	2b\
2D\	1d	2A/	2a/
[2G\	.	2G/	[2b\
=27	=27	=27	=27
2G\]	1r	2.d\	4b\]
.	.	.	4a/
2F\	.	.	2a/
.	.	4c\	.
2C/	2r	2e\	2g/
2F\	[2d\	2d\	[2a/
=28	=28	=28	=28
1G	2d\]	2.G/	4a/]
.	.	.	4g/
.	2B\	.	1g
.	.	4B\	.
1D	1d	2.A/	.
.	.	.	2f#i/
.	.	8G/L	.
.	.	8F/J	.
=29	=29	=29	=29
1r	[0e	1E	0g
[1C	.	[1c	.
=30	=30	=30	=30
1C]	1e]	1c]	1r
[1G	1d	[1B	1g
=31	=31	=31	=31
2G\]	0d	2B\]	2g/
4F\	.	1.A	1a
4E\	.	.	.
1F	.	.	.
.	.	.	2a/
=32	=32	=32	=32
1.G	0r	1.G	2.b\
.	.	.	4cc\
.	.	.	2.dd\
[2F\	.	[2A/	.
.	.	.	4cc\
=33	=33	=33	=33
1F]	0r	1A]	1a
1E	.	2B\	1g
.	.	2c\	.
=34	=34	=34	=34
1r	1d	2B\	2r
.	.	2G/	2.dd\
[1G	1B	2.d\	.
.	.	.	4g/
.	.	.	[2dd\
.	.	4c\	.
=35	=35	=35	=35
2G\]	0d	2B\	2dd\]
1.F	.	1A	4cc\
.	.	.	4b\
.	.	.	1a
.	.	2A/	.
=36	=36	=36	=36
0E	[0e	0B	1g
.	.	.	1r
=37	=37	=37	=37
2.E\	1e]	2.G/	1g
4F\	.	4A/	.
2G\	1d	2B\	2g/
[2D\	.	[2A/	[2f/
=38	=38	=38	=38
4D\]	1d	1A]	2f/]
4E\	.	.	.
2F\	.	.	2f/
2.C/	1r	[1G	2e/
.	.	.	[2g/
4D\	.	.	.
=39	=39	=39	=39
2E\	0r	2G/]	2g/]
2F\	.	1.A	1f
2D\	.	.	.
2F\	.	.	2f/
=40	=40	=40	=40
1C	0G	0c	1e
2r	.	.	[1g
[2C/	.	.	.
=41	=41	=41	=41
2C/]	1E	0e	1g]
2D\	.	.	.
1E	1G	.	1g
=42	=42	=42	=42
2F\	[0A	1d	0f
2D\	.	.	.
1F	.	1c	.
=43	=43	=43	=43
[0Cl	1A]	[0cl	[0el
.	1G	.	.
=44	=44	=44	=44
0C]	0Gl	0c]	0e]
!!LO:LB:i:g=z
=45||	=45||	=45||	=45||
*>C	*>C	*>C	*>C
!!section: Kyrie II
!!!OMD: Kyrie II
*M3/1	*M3/1	*M3/1	*M3/1
*met(O|)	*met(O|)	*met(O|)	*met(O|)
1r	0.r	1.d	0.r
1.G	.	.	.
.	.	2B\	.
.	.	2d\	.
2E\	.	[2e\	.
=46	=46	=46	=46
1.G	0.r	4e\]	1.g
.	.	4d\	.
.	.	2d\	.
.	.	2r	.
2.A\	.	1c	1e
4G\	.	.	.
2G\	.	[2d\	2g/
=47	=47	=47	=47
2F\	0.d	4d\]	4.a/
.	.	4c\	.
.	.	.	8g/
2G\	.	2B\	1g
1D	.	1A	.
.	.	.	2f#i/
[1GG	.	1G	2g/
.	.	.	[2dd\
=48	=48	=48	=48
1GG]	0B	2r	4dd\]
.	.	.	4cc\
.	.	2.d\	4b\
.	.	.	4a/
2r	.	.	1g
.	.	4c\	.
2.G\	.	4B\	.
.	.	4A/	.
.	1d	2.G/	2r
4F\	.	.	.
4E\	.	.	[2g/
4D\	.	8A/L	.
.	.	8B/J	.
=49	=49	=49	=49
1C	0e	2.c\	4g/]
.	.	.	8a/L
.	.	.	8b/J
.	.	.	2cc\
.	.	4B\	.
2r	.	1G	2b\
2C/	.	.	2cc\
2F\	1d	1r	2a/
2G\	.	.	2dd\
=50	=50	=50	=50
2D\	1d	2d\	4dd\
.	.	.	2b\
2G\	.	4d\	.
.	.	2B\	4g/
4G\	1r	.	1g
2E\	.	4G/	.
.	.	2.G/	.
4C/	.	.	.
[1C	1r	.	2r
.	.	8A/L	.
.	.	8B/J	.
.	.	[2c\	[2g/
=51	=51	=51	=51
1C]	0.r	4c\]	4g/]
.	.	4B\	8a/L
.	.	.	8b/J
.	.	2A/	2cc\
2r	.	2G/	2b\
2.F\	.	2A/	1a
.	.	1D	.
4E\	.	.	.
2D\	.	.	2dd\
=52	=52	=52	=52
2GG/	0G	2d\	4dd\
.	.	.	2b\
2G\	.	4d\	.
.	.	2B\	4g/
4G\	.	.	1g
2E\	.	4G/	.
.	.	1G	.
4C/	.	.	.
1C	1E	.	2r
.	.	[2G/	2cc\
=53	=53	=53	=53
2r	0G	4G/]	2b\
.	.	4A/	.
2E\	.	2B\	2g/
4E\	.	1c	4g/
2C/	.	.	2e/
4AA/	.	.	4c/
2AA/	2.A/	2r	2c/
2D\	.	2A/	2f/
.	4G/	.	.
=54	=54	=54	=54
2GG/	1G	2B\	2d/
1C	.	2G/	1e
.	2r	2c\	.
2BB/	1G	2d\	2d/
1AA	.	2.e\	1c
.	2E/	.	.
.	.	8d\L	.
.	.	8c\J	.
=55	=55	=55	=55
2GG/	2G/	2B\	2r
2r	2.A/	1e	2.cc\
1r	.	.	.
.	4G/	.	4b\
.	2G/	2d\	2b\
2r	1r	2c\	2a/
[2D\	.	[2f\	[2dd\
=56	=56	=56	=56
4D\]	1r	4f\]	4dd\]
8E\L	.	4e\	4cc\
8F\J	.	.	.
2G\	.	2.d\	2b\
2F\	1.d	.	2a/
.	.	4c\	.
2D\	.	4B\	2r
.	.	4A/	.
2r	.	1G	2dd\
[2G\	2B\	.	4dd\
.	.	.	[4b\
=57	=57	=57	=57
4G\]	2d\	1r	4b\]
8A\L	.	.	8a/L
8B\J	.	.	8g/J
2c\	2.e\	.	2a/
2B\	.	2r	2.g/
.	4d\	.	.
1G	2d\	2.B\	.
.	.	.	4f/
.	2G/	.	4e/
.	.	8c\L	4d/
.	.	8d\J	.
[2C/	2E/	[2e\	[2g/
=58	=58	=58	=58
4C/]	2G/	4e\]	2g/]
8D\L	.	4c\	.
8E\J	.	.	.
2F\	2.A/	2d\	2f/
2E\	.	2.e\	2g/
.	4G/	.	.
1C	1G	.	2.e/
.	.	4d\	.
.	.	2c\	.
.	.	.	4f/
[2GG/	[2G/	[2B\	4g/
.	.	.	4a/
=59	=59	=59	=59
4GG/]	2G/]	4B\]	2b\
8AA/L	.	8c\L	.
8BB/J	.	8d\J	.
2C/	2E/	2e\	2.a/
2BB/	1G	[0dl	.
.	.	.	4g/
2GG/	.	.	1g
1D	2.A/	.	.
.	.	.	2f#i/
.	4G/	.	.
=60	=60	=60	=60
0.GGl	0.Gl	0.d]	0.gl
==	==	==	==
*-	*-	*-	*-
!!!RDF**kern: l=long note in original notation
!!!RDF**kern: i=editorial accidental
!!!ENC: Jesse Rodin; Victoria Chang 2011/04/03
!!!END: 2011/04/03/
!!!EED:	Jesse Rodin
!!!EEV:	2011/11/2/
!!attribution-level@Jos: 6 (very doubtful)
!!!ONB:	Translated from MusicXML and edited on 2011/11/02/ by Craig Sapp
!!muse2ps: T^@{OPR}^u^@{ONM}{. }@{OTL}^C^La Rue/Josquin?\n@{SCT}^i2I100v85,90,85,150c80Q16
